X:1
T:Title
%%score { ( 1 3 5 ) | ( 2 4 ) }
L:1/8
Q:1/4=100
M:4/4
K:Db
V:1 treble nm="Grand Piano"
V:3 treble 
V:5 treble 
V:2 bass 
V:4 bass 
V:1
 [FA][FA][FB][DF] [FA] [FA]3 | [FB][FB][Fc][Fd] [A,CG]4 | [CGB][CGB][Gc][CEG] [CGB] [CGB]3 | %3
w: Harry~Dixon~Loes * * * * *|||
 [Gc][Gc][Gd][Ge] [FA]4 | [FA][FA][FB][DF] [FA] [FA]3 | [DFB][B,FB]cc d4 | %6
w: |||
 [=Gd][EGB][EGc][EGd] [CAe] [A,EA]3 |[M:9/8] cBA .=G3 _G3 | %8
w: ||
[M:4/4] .[Fd]2[K:bass] z[K:treble] c [Fe][Fd]A[AB] | z .[Gc]3[K:bass][K:treble] [G=c]4[K:bass] | %10
w: ||
 z .e3[K:bass][K:treble] z4 | [Fe] [Fe]2 [Fd] [DA]-[D-FA-][D-GA][DA] | BBB[Ac] [Bd][Bd][Ac][GB] | %13
w: |||
 [FA][GB][FA][DF] [FA]4 | z4 z2 e2 | e6 z2 | .[Fd]2[K:bass] z[K:treble] c [Fe][Fd]A[AB] | %17
w: ||||
 z .[Gc]3[K:bass][K:treble] [G=c]4[K:bass] | z .e3[K:bass][K:treble] z4 | %19
w: ||
 [Fe] [Fe]2 [Fd] [DA]-[D-FA-][D-GA][DA] | BBB[Ac] [Bd][Bd][Ac]B | A d2 d f4 | z4 z2 e2 | %23
w: ||||
 [Fd]6 z2 |] %24
w: |
V:2
 [D,D][D,D][D,D][D,A,] [D,D] [D,D]3 | [D,D][D,D][D,A,][D,A,] E,4 | A,,A,,[A,,A,]A,, A,, A,,3 | %3
 [A,,A,][A,,A,][A,,B,][A,,C] [D,D]4 | [D,D][D,D][D,D][D,A,] [D,D] [D,D]3 | %5
 B,,D,[K:treble][F,=A,F][A,CF] [B,F]4 | [E,B,]D,C,B,, A,, C,3 |[M:9/8] z3 z E2 z3 | %8
[M:4/4] z .A,3 z4 | [E,A,]E, z [A,G] A,4 | [A,CG] [CG]2 [_CF] [A,=CA][A,CG][A,CG][A,G] | %11
 z .A,3 z4 | [G,DG][G,DG][G,DG][G,D] [G,D][G,D][G,D][G,D] | [D,D][D,D][D,D][D,A,] [D,D]4 | %14
 DC=G,A, [E,B,]2 .[F,DE]2 | [A,CA]2 [B,D]2 .[A,C]2 =G_G | z .A,3 z4 | [E,A,]E, z [A,G] A,4 | %18
 [A,CG] [CG]2 [_CF] [A,=CA][A,CG][A,CG][A,G] | z .A,3 z4 | %20
 [G,DG][G,DG][G,DG][G,D] [G,D][G,D][G,D][K:treble][G,DG] | [A,DF] [A,DF]2 [A,DF] [=A,CF]4 | %22
 [B,DF][B,DF][=G,D_F][G,DF] [A,D=F]2[K:bass] .[A,,CG]2 | [D,A,]6 z2 |] %24
V:3
 x8 | x8 | x8 | x8 | x8 | x8 | x8 |[M:9/8] z3 z A2- A3 |[M:4/4] z .[Fd]3[K:bass][K:treble] z4 | %9
 .[Gc]2[K:bass] z[K:treble] _c z[K:bass] A,,C,E, | .e2[K:bass] z[K:treble] =d feBc | z4 .F2 z2 | %12
 x8 | x8 | =GABc [Gd]2 z =G, | z2 G2 GABc | z .[Fd]3[K:bass][K:treble] z4 | %17
 .[Gc]2[K:bass] z[K:treble] _c z[K:bass] A,,C,E, | .e2[K:bass] z[K:treble] =d feBc | z4 .F2 z2 | %20
 x8 | x8 | edcB A2 z A, | x8 |] %24
V:4
 x8 | x8 | x8 | x8 | x8 | x2[K:treble] x6 | x8 |[M:9/8] [E,A,E][E,DE][E,CE] [E,DE] [A,C]2- [A,C]3 | %8
[M:4/4] [D,A,]D, z [A,F] [D,A,][D,A,][F,D][_F,D] | z .A,3 .E,2 z2 | z A, z2 z4 | %11
 [D,A,]D,A,,A, D,D,E,F, | x8 | x8 | [E,E]2 [E,E]2 z4 | x8 | %16
 [D,A,]D, z [A,F] [D,A,][D,A,][F,D][_F,D] | z .A,3 .E,2 z2 | z A, z2 z4 | [D,A,]D,A,,A, D,D,E,F, | %20
 x7[K:treble] x | x8 | x6[K:bass] x2 | x8 |] %24
V:5
 x8 | x8 | x8 | x8 | x8 | x8 | x8 |[M:9/8] x9 |[M:4/4] z2[K:bass] A,,2[K:treble] z4 | %9
 z2[K:bass] A,,2[K:treble] z4[K:bass] | z2[K:bass] A,,2[K:treble] z4 | x8 | x8 | x8 | x8 | x8 | %16
 z2[K:bass] A,,2[K:treble] z4 | z2[K:bass] A,,2[K:treble] z4[K:bass] | %18
 z2[K:bass] A,,2[K:treble] z4 | x8 | x8 | x8 | x8 | x8 |] %24

